img/icones/carbono.svg

<svg width="32" height="32" viewBox="0 0 32 32" fill="none" xmlns="http://www.w3.org/2000/svg">
<path d="M22.667 22.6533C20.867 22.6533 19.7337 23.2133 18.7337 23.72C17.867 24.16 17.1603 24.52 16.0003 24.52C14.8003 24.52 14.1337 24.1867 13.267 23.72C12.267 23.2133 11.1737 22.6533 9.33366 22.6533C7.49366 22.6533 6.40033 23.2133 5.40033 23.72C4.82699 24.0133 4.32033 24.2667 3.70699 24.4133C3.10699 24.5467 2.66699 25.0267 2.66699 25.6267V25.76C2.66699 26.56 3.41366 27.1333 4.18699 26.9733C5.17366 26.7733 5.92033 26.4 6.60033 26.0533C7.46699 25.6133 8.16033 25.2533 9.33366 25.2533C10.507 25.2533 11.2003 25.5867 12.067 26.0533C13.067 26.56 14.1603 27.12 16.0003 27.12C17.8403 27.12 18.9337 26.56 19.9337 26.0533C20.8003 25.6133 21.507 25.2533 22.667 25.2533C23.867 25.2533 24.5337 25.5867 25.4003 26.0533C26.0937 26.4 26.8403 26.7867 27.8403 26.9867C28.0205 27.0218 28.2061 27.017 28.3842 26.9725C28.5622 26.9281 28.7283 26.845 28.8708 26.7293C29.0132 26.6136 29.1285 26.4679 29.2085 26.3028C29.2885 26.1376 29.3312 25.9568 29.3337 25.7733V25.6533C29.3337 25.04 28.8803 24.56 28.2803 24.4267C27.667 24.2933 27.1737 24.04 26.6003 23.7333C25.6003 23.2133 24.467 22.6533 22.667 22.6533V22.6533ZM22.667 16.72C20.867 16.72 19.7337 17.2933 18.7337 17.7867C17.867 18.2133 17.1603 18.5867 16.0003 18.5867C14.8003 18.5867 14.1337 18.2533 13.267 17.7867C12.267 17.28 11.1737 16.72 9.33366 16.72C7.49366 16.72 6.40033 17.2933 5.40033 17.7867C4.82699 18.0667 4.32033 18.3333 3.69366 18.48C3.10699 18.6133 2.66699 19.0933 2.66699 19.6933V19.8267C2.66707 20.011 2.70822 20.1929 2.78746 20.3593C2.8667 20.5257 2.98203 20.6723 3.12506 20.7885C3.26809 20.9048 3.43522 20.9876 3.61431 21.0311C3.79339 21.0746 3.97992 21.0777 4.16033 21.04C5.16033 20.84 5.90699 20.4533 6.60033 20.12C7.46699 19.6533 8.13366 19.32 9.33366 19.32C10.5337 19.32 11.2003 19.6533 12.067 20.12C13.067 20.6267 14.1603 21.1867 16.0003 21.1867C17.8403 21.1867 18.9337 20.6133 19.9337 20.12C20.8003 19.6533 21.467 19.32 22.667 19.32C23.867 19.32 24.5337 19.6533 25.4003 20.12C26.0937 20.4667 26.8403 20.8533 27.8403 21.0533C28.0215 21.0887 28.2083 21.0836 28.3874 21.0383C28.5664 20.9931 28.7332 20.9089 28.8759 20.7917C29.0185 20.6745 29.1336 20.5272 29.2127 20.3604C29.2918 20.1936 29.3331 20.0113 29.3337 19.8267V19.7067C29.3337 19.0933 28.8803 18.6133 28.2803 18.48C27.667 18.3467 27.1737 18.0933 26.6003 17.7867C25.6003 17.28 24.467 16.72 22.667 16.72V16.72ZM26.6003 5.94667C25.6003 5.44 24.4937 4.88 22.667 4.88C20.8403 4.88 19.7337 5.44 18.7337 5.94667C17.867 6.37334 17.1603 6.74667 16.0003 6.74667C14.8003 6.74667 14.1337 6.41334 13.267 5.94667C12.267 5.45334 11.1737 4.88 9.33366 4.88C7.49366 4.88 6.40033 5.44 5.40033 5.94667C4.82699 6.24 4.32033 6.49334 3.70699 6.64C3.10699 6.77334 2.66699 7.25334 2.66699 7.85334V7.94667C2.66699 8.74667 3.38699 9.33334 4.16033 9.17334C5.16033 8.97334 5.90699 8.58667 6.60033 8.25334C7.46699 7.81334 8.16033 7.45334 9.33366 7.45334C10.507 7.45334 11.2003 7.78667 12.067 8.25334C13.067 8.76 14.1603 9.32 16.0003 9.32C17.8403 9.32 18.9337 8.74667 19.9337 8.25334C20.8003 7.82667 21.507 7.45334 22.667 7.45334C23.867 7.45334 24.5337 7.78667 25.4003 8.25334C26.0937 8.6 26.8403 8.98667 27.8403 9.18667C28.0215 9.22203 28.2083 9.21691 28.3874 9.17168C28.5664 9.12644 28.7332 9.04222 28.8759 8.92502C29.0185 8.80782 29.1336 8.66054 29.2127 8.49372C29.2918 8.32689 29.3331 8.14465 29.3337 7.96V7.84C29.3337 7.22667 28.8803 6.74667 28.2803 6.61334C27.667 6.48 27.1737 6.24 26.6003 5.94667V5.94667ZM22.667 10.7867C20.867 10.7867 19.7337 11.36 18.7337 11.8533C17.867 12.32 17.2003 12.6533 16.0003 12.6533C14.8003 12.6533 14.1337 12.32 13.267 11.8533C12.267 11.3467 11.1737 10.7867 9.33366 10.7867C7.49366 10.7867 6.40033 11.36 5.40033 11.8533C4.82699 12.16 4.33366 12.4133 3.72033 12.5467C3.12033 12.68 2.66699 13.16 2.66699 13.7733V13.8933C2.66707 14.0776 2.70822 14.2596 2.78746 14.426C2.8667 14.5924 2.98203 14.739 3.12506 14.8552C3.26809 14.9714 3.43522 15.0543 3.61431 15.0978C3.79339 15.1413 3.97992 15.1443 4.16033 15.1067C5.16033 14.9067 5.90699 14.52 6.60033 14.1867C7.46699 13.76 8.17366 13.3867 9.33366 13.3867C10.4937 13.3867 11.2003 13.72 12.067 14.1867C13.067 14.6933 14.1603 15.2533 16.0003 15.2533C17.8403 15.2533 18.9337 14.68 19.9337 14.1867C20.8003 13.76 21.507 13.3867 22.667 13.3867C23.867 13.3867 24.5337 13.72 25.4003 14.1867C26.0937 14.5333 26.8403 14.92 27.8403 15.12C28.0205 15.1552 28.2061 15.1503 28.3842 15.1059C28.5622 15.0614 28.7283 14.9783 28.8708 14.8626C29.0132 14.7469 29.1285 14.6013 29.2085 14.4361C29.2885 14.2709 29.3312 14.0902 29.3337 13.9067V13.7867C29.3337 13.1733 28.8803 12.6933 28.2803 12.56C27.667 12.4267 27.1737 12.1733 26.6003 11.8667C25.6003 11.3467 24.467 10.7867 22.667 10.7867V10.7867Z" fill="url(#paint0_linear_20_348)"/>
<defs>
<linearGradient id="paint0_linear_20_348" x1="16.0003" y1="4.88" x2="16.0003" y2="27.12" gradientUnits="userSpaceOnUse">
<stop stop-color="#F5C20A"/>
<stop offset="1" stop-color="#F2A60C"/>
</linearGradient>
</defs>
</svg>

<svg width="32" height="32" fill="none" xmlns="http://www.w3.org/2000/svg"><path d="M22.667 22.653c-1.8 0-2.933.56-3.933 1.067-.867.44-1.574.8-2.734.8-1.2 0-1.866-.333-2.733-.8-1-.507-2.093-1.067-3.933-1.067-1.84 0-2.934.56-3.934 1.067-.573.293-1.08.547-1.693.693-.6.134-1.04.614-1.04 1.214v.133c0 .8.747 1.373 1.52 1.213.987-.2 1.733-.573 2.413-.92.867-.44 1.56-.8 2.734-.8 1.173 0 1.866.334 2.733.8 1 .507 2.093 1.067 3.933 1.067 1.84 0 2.934-.56 3.934-1.067.866-.44 1.573-.8 2.733-.8 1.2 0 1.867.334 2.733.8.694.347 1.44.734 2.44.934a1.254 1.254 0 0 0 1.494-1.214v-.12c0-.613-.454-1.093-1.054-1.226-.613-.134-1.106-.387-1.68-.694-1-.52-2.133-1.08-3.933-1.08Zm0-5.933c-1.8 0-2.933.573-3.933 1.067-.867.426-1.574.8-2.734.8-1.2 0-1.866-.334-2.733-.8-1-.507-2.093-1.067-3.933-1.067-1.84 0-2.934.573-3.934 1.067-.573.28-1.08.546-1.706.693-.587.133-1.027.613-1.027 1.213v.134A1.24 1.24 0 0 0 4.16 21.04c1-.2 1.747-.587 2.44-.92.867-.467 1.534-.8 2.734-.8s1.866.333 2.733.8c1 .507 2.093 1.067 3.933 1.067 1.84 0 2.934-.574 3.934-1.067.866-.467 1.533-.8 2.733-.8 1.2 0 1.867.333 2.733.8.694.347 1.44.733 2.44.933a1.252 1.252 0 0 0 1.494-1.226v-.12c0-.614-.454-1.094-1.054-1.227-.613-.133-1.106-.387-1.68-.693-1-.507-2.133-1.067-3.933-1.067ZM26.6 5.947c-1-.507-2.106-1.067-3.933-1.067s-2.933.56-3.933 1.067c-.867.426-1.574.8-2.734.8-1.2 0-1.866-.334-2.733-.8-1-.494-2.093-1.067-3.933-1.067-1.84 0-2.934.56-3.934 1.067-.573.293-1.08.546-1.693.693-.6.133-1.04.613-1.04 1.213v.094c0 .8.72 1.386 1.493 1.226 1-.2 1.747-.586 2.44-.92.867-.44 1.56-.8 2.734-.8 1.173 0 1.866.334 2.733.8 1 .507 2.093 1.067 3.933 1.067 1.84 0 2.934-.573 3.934-1.067.866-.426 1.573-.8 2.733-.8 1.2 0 1.867.334 2.733.8.694.347 1.44.734 2.44.934a1.254 1.254 0 0 0 1.494-1.227v-.12c0-.613-.454-1.093-1.054-1.227-.613-.133-1.106-.373-1.68-.666Zm-3.933 4.84c-1.8 0-2.933.573-3.933 1.066-.867.467-1.534.8-2.734.8s-1.866-.333-2.733-.8c-1-.506-2.093-1.066-3.933-1.066-1.84 0-2.934.573-3.934 1.066-.573.307-1.066.56-1.68.694-.6.133-1.053.613-1.053 1.226v.12a1.24 1.24 0 0 0 1.493 1.214c1-.2 1.747-.587 2.44-.92.867-.427 1.574-.8 2.734-.8s1.866.333 2.733.8c1 .506 2.093 1.066 3.933 1.066 1.84 0 2.934-.573 3.934-1.066.866-.427 1.573-.8 2.733-.8 1.2 0 1.867.333 2.733.8.694.346 1.44.733 2.44.933a1.254 1.254 0 0 0 1.494-1.213v-.12c0-.614-.454-1.094-1.054-1.227-.613-.133-1.106-.387-1.68-.693-1-.52-2.133-1.08-3.933-1.08Z" fill="url(#a)"/><defs><linearGradient id="a" x1="16" y1="4.88" x2="16" y2="27.12" gradientUnits="userSpaceOnUse"><stop stop-color="#F5C20A"/><stop offset="1" stop-color="#F2A60C"/></linearGradient></defs></svg>
